src/img/youtube.svg

<?xml version="1.0" encoding="utf-8"?>
<!-- Generator: Adobe Illustrator 18.1.1, SVG Export Plug-In . SVG Version: 6.00 Build 0)  -->
<!DOCTYPE svg PUBLIC "-//W3C//DTD SVG 1.1//EN" "http://www.w3.org/Graphics/SVG/1.1/DTD/svg11.dtd">
<svg version="1.1" id="Youtube_w_x2F__circle" xmlns="http://www.w3.org/2000/svg" xmlns:xlink="http://www.w3.org/1999/xlink"
	 x="0px" y="0px" viewBox="0 0 20 20" enable-background="new 0 0 20 20" xml:space="preserve">
<path d="M11.603,9.833L9.357,8.785C9.161,8.694,9,8.796,9,9.013v1.974c0,0.217,0.161,0.319,0.357,0.228l2.245-1.048
	C11.799,10.075,11.799,9.925,11.603,9.833z M10,0.4c-5.302,0-9.6,4.298-9.6,9.6s4.298,9.6,9.6,9.6s9.6-4.298,9.6-9.6
	S15.302,0.4,10,0.4z M10,13.9c-4.914,0-5-0.443-5-3.9s0.086-3.9,5-3.9s5,0.443,5,3.9S14.914,13.9,10,13.9z"/>
</svg>

<?xml version="1.0" encoding="UTF-8"?>
<svg width="20px" height="20px" viewBox="0 0 20 20" version="1.1" xmlns="http://www.w3.org/2000/svg" xmlns:xlink="http://www.w3.org/1999/xlink">
    <!-- Generator: Sketch 43.2 (39069) - http://www.bohemiancoding.com/sketch -->
    <title>youtube</title>
    <desc>Created with Sketch.</desc>
    <defs></defs>
    <g id="Page-1" stroke="none" stroke-width="1" fill="none" fill-rule="evenodd">
        <g id="youtube" fill-rule="nonzero" fill="#4B5057">
            <path d="M11.603,9.833 L9.357,8.785 C9.161,8.694 9,8.796 9,9.013 L9,10.987 C9,11.204 9.161,11.306 9.357,11.215 L11.602,10.167 C11.799,10.075 11.799,9.925 11.603,9.833 Z M10,0.4 C4.698,0.4 0.4,4.698 0.4,10 C0.4,15.302 4.698,19.6 10,19.6 C15.302,19.6 19.6,15.302 19.6,10 C19.6,4.698 15.302,0.4 10,0.4 Z M10,13.9 C5.086,13.9 5,13.457 5,10 C5,6.543 5.086,6.1 10,6.1 C14.914,6.1 15,6.543 15,10 C15,13.457 14.914,13.9 10,13.9 Z" id="Shape"></path>
        </g>
    </g>
</svg>
